static/presentations/Alex_Poly/alg/Alg_3.svg

<!-- Created with Vectornator (http://vectornator.io/) -->
<svg xmlns:inkscape="http://www.inkscape.org/namespaces/inkscape" xmlns:sodipodi="http://sodipodi.sourceforge.net/DTD/sodipodi-0.dtd" xmlns="http://www.w3.org/2000/svg" xmlns:svg="http://www.w3.org/2000/svg" xmlns:vectornator="http://vectornator.io" stroke-miterlimit="10" style="clip-rule:evenodd;fill-rule:nonzero;stroke-linecap:round;stroke-linejoin:round" version="1.1" viewBox="0 0 952.72467 901.44348" xml:space="preserve" id="svg24" sodipodi:docname="Alg_3.svg"><sodipodi:namedview id="namedview24" pagecolor="#ffffff" bordercolor="#000000" borderopacity="0.25" inkscape:showpageshadow="2" inkscape:pageopacity="0.0" inkscape:pagecheckerboard="0" inkscape:deskcolor="#d1d1d1"/>
    <defs id="defs1"/>
    <clipPath id="ArtboardFrame_2">
        <rect height="1000" width="1000" x="0" y="0" id="rect1"/>
    </clipPath>

    <g id="Layer-1" vectornator:layerName="Layer 1" transform="translate(-29.216134,-48.397039)">
        <path d="m 481.208,461.703 c 52.867,-52.06 126.337,-220.504 225.951,-266.527 45.098,-20.836 120.843,-56.273 252.395,137.825 35.176,51.9 -29.908,121.376 -56.77,154.043" fill="none" opacity="1" class="stroke-purple" stroke="#bd93f9" stroke-linecap="round" stroke-linejoin="miter" stroke-width="24.4437" id="path1"/>
        <path d="M 926.155,188.38 C 1012.82,128.996 928.579,61.9328 751.885,61.7792 627.89,61.6714 213.595,50.3545 118.111,100.78 -1.40794,163.899 51.7497,279.141 62.4071,297.718 c 29.4644,51.36 138.4259,97.473 161.3099,152.251 11.197,26.802 32.027,66.57 -19.134,110.11" fill="none" opacity="1" class="stroke-purple" stroke="#bd93f9" stroke-linecap="round" stroke-linejoin="round" stroke-width="24.4437" id="path2"/>
        <path d="m 846.155,287.954 c -53.692,60.607 -69.893,52.827 -82.45,118.829 4.573,90.796 142.202,121.13 185.885,199.135 20.828,67.144 -14.116,85.959 -64.887,124.942" fill="none" opacity="1" class="stroke-purple" stroke="#bd93f9" stroke-linecap="round" stroke-linejoin="miter" stroke-width="24.4437" id="path3"/>
        <path d="m 840.358,569.111 c 0,0 -53.504,50.753 -54.217,80.307 -0.626,25.955 51.576,89.064 88.538,136.482 24.103,30.921 83.195,63.67 53.193,113.159 -43.613,71.94 -592.428,36.468 -773.08,-50.881 C 85.0503,814.456 70.996,705.333 125.967,647.604" fill="none" opacity="1" class="stroke-purple" stroke="#bd93f9" stroke-linecap="round" stroke-linejoin="miter" stroke-width="24.4437" id="path4"/>
        <path d="M 805.791,785.983 C 709.947,851.095 536.005,599.428 384.7,439.988 300.515,351.276 223.338,291.116 170.52,329.957" fill="none" opacity="1" class="stroke-purple" stroke="#bd93f9" stroke-linecap="round" stroke-linejoin="miter" stroke-width="24.4437" id="path5"/>
        <path d="M 400.468,550.956 C 371.68,574.267 316.222,683.549 237.919,654.966 159.615,626.383 24.2615,484.906 97.3319,398.333" fill="none" opacity="1" class="stroke-purple" stroke="#bd93f9" stroke-linecap="round" stroke-linejoin="miter" stroke-width="24.4437" id="path6"/>
    </g>
    <g id="Layer-3" vectornator:layerName="Layer 3" transform="translate(-29.216134,-48.397039)">
        <path d="m 133.562,287.062 c -37.3028,1.787 -67.8176,30.749 -69.687,67.782 -1.994,39.502 29.3491,73.166 70,75.218 40.651,2.053 75.256,-28.279 77.25,-67.781 1.994,-39.502 -29.38,-73.167 -70.031,-75.219 -2.541,-0.128 -5.045,-0.119 -7.532,0 z" class="fill-background" fill-rule="nonzero" opacity="1" stroke="none" id="path7"/>
        <path d="m 154.17,544.659 c -37.303,1.786 -67.8179,30.748 -69.6873,67.781 -1.994,39.502 29.3493,73.167 70.0003,75.219 40.651,2.052 75.256,-28.279 77.25,-67.781 1.994,-39.502 -29.381,-73.167 -70.032,-75.219 -2.54,-0.128 -5.044,-0.119 -7.531,0 z" class="fill-background" fill-rule="nonzero" opacity="1" stroke="none" id="path8"/>
        <path d="m 435.809,433.377 c -14.786,0.708 -28.506,5.686 -39.798,13.744 -17.195,12.27 -28.761,31.684 -29.889,54.038 -1.994,39.501 29.349,73.166 70,75.218 40.651,2.052 75.256,-28.279 77.25,-67.781 1.994,-39.502 -29.381,-73.167 -70.032,-75.219 -2.54,-0.128 -5.044,-0.119 -7.531,0 z" class="fill-background" fill-rule="nonzero" opacity="1" stroke="none" id="path9"/>
        <path d="m 877.501,164.79 c -37.303,1.786 -67.818,30.748 -69.687,67.781 -1.994,39.502 29.349,73.167 70,75.219 40.651,2.052 75.256,-28.279 77.25,-67.781 1.994,-39.502 -29.381,-73.167 -70.031,-75.219 -2.541,-0.128 -5.045,-0.119 -7.532,0 z" class="fill-background" fill-rule="nonzero" opacity="1" stroke="none" id="path10"/>
        <path d="m 866.401,462.638 c -37.303,1.787 -67.818,30.749 -69.687,67.782 -1.994,39.502 29.349,73.166 70,75.218 40.651,2.052 75.256,-28.279 77.25,-67.781 1.994,-39.502 -29.381,-73.167 -70.032,-75.219 -2.54,-0.128 -5.044,-0.119 -7.531,0 z" class="fill-background" fill-rule="nonzero" opacity="1" stroke="none" id="path11"/>
        <path d="m 855.496,689.469 c -37.303,1.787 -67.818,30.749 -69.688,67.782 -1.994,39.502 29.349,73.166 70,75.218 40.651,2.052 75.256,-28.279 77.25,-67.781 1.994,-39.502 -29.38,-73.167 -70.031,-75.219 -2.541,-0.128 -5.044,-0.119 -7.531,0 z" class="fill-background" fill-rule="nonzero" opacity="1" stroke="none" id="path12"/>
    </g>
    <g id="Layer-4" vectornator:layerName="Layer 4" transform="translate(-29.216134,-48.397039)">
        <path d="m 193.825,411.531 c -30.282,-28.952 -90.9,-19.181 -107.7792,3.465" fill="none" opacity="1" class="stroke-orange stroke-orange" stroke="#ffb86c" stroke-linecap="round" stroke-linejoin="miter" stroke-width="24.4437" id="path13"/>
        <path d="m 78.8175,317.785 c 28.0795,23.662 94.8275,7.426 119.1445,0.924" fill="none" opacity="1" class="stroke-orange stroke-orange" stroke="#ffb86c" stroke-linecap="round" stroke-linejoin="miter" stroke-width="24.4437" id="path14"/>
        <path d="m 389.007,443.662 c 46.687,39.827 27.848,81.937 2.568,115.484" fill="none" opacity="1" class="stroke-orange stroke-orange" stroke="#ffb86c" stroke-linecap="round" stroke-linejoin="miter" stroke-width="24.4437" id="path15"/>
        <path d="M 489.634,557.927 C 469.193,527.108 471.993,477.33 494.701,446.252" fill="none" opacity="1" class="stroke-orange stroke-orange" stroke="#ffb86c" stroke-linecap="round" stroke-linejoin="miter" stroke-width="24.4437" id="path16"/>
        <path d="m 205.149,559.756 c -26.227,23.932 -73.429,17.29 -90.474,-5.029" fill="none" opacity="1" class="stroke-orange stroke-orange" stroke="#ffb86c" stroke-linecap="round" stroke-linejoin="miter" stroke-width="24.4437" id="path17"/>
        <path d="M 226.832,649.58 C 184.377,629.466 135.43,642.077 109.534,669.327" fill="none" opacity="1" class="stroke-orange stroke-orange" stroke="#ffb86c" stroke-linecap="round" stroke-linejoin="miter" stroke-width="24.4437" id="path18"/>
        <path d="m 822.391,192.219 c 33.925,12.044 34.501,87.393 15.809,104.343" fill="none" opacity="1" class="stroke-orange stroke-orange" stroke="#ffb86c" stroke-linecap="round" stroke-linejoin="miter" stroke-width="24.4437" id="path19"/>
        <path d="m 933.478,183.735 c -23.93,12.789 -21.665,87.759 -2.299,109.787" fill="none" opacity="1" class="stroke-orange stroke-orange" stroke="#ffb86c" stroke-linecap="round" stroke-linejoin="miter" stroke-width="24.4437" id="path20"/>
        <path d="m 815.221,490.399 c 35.975,24.849 26.561,77.402 8.402,95.583" fill="none" opacity="1" class="stroke-orange stroke-orange" stroke="#ffb86c" stroke-linecap="round" stroke-linejoin="miter" stroke-width="24.4437" id="path21"/>
        <path d="m 916.015,471.681 c -31.284,28.55 -17.525,79.922 15.502,109.342" fill="none" opacity="1" class="stroke-orange stroke-orange" stroke="#ffb86c" stroke-linecap="round" stroke-linejoin="miter" stroke-width="24.4437" id="path22"/>
        <path d="m 813.201,704.451 c 18.983,18.983 6.403,80.866 -20.639,88.045" fill="none" opacity="1" class="stroke-orange stroke-orange" stroke="#ffb86c" stroke-linecap="round" stroke-linejoin="miter" stroke-width="24.4437" id="path23"/>
        <path d="m 914.31,709.163 c -45.315,27.718 -32.908,87.13 -5.727,110.951" fill="none" opacity="1" class="stroke-orange stroke-orange" stroke="#ffb86c" stroke-linecap="round" stroke-linejoin="miter" stroke-width="24.4437" id="path24"/>
    </g>
</svg>

<!DOCTYPE svg PUBLIC "-//W3C//DTD SVG 1.1//EN" "http://www.w3.org/Graphics/SVG/1.1/DTD/svg11.dtd">
<!-- Created with Vectornator (http://vectornator.io/) -->
<svg xmlns="http://www.w3.org/2000/svg" xmlns:vectornator="http://vectornator.io" xmlns:xlink="http://www.w3.org/1999/xlink" stroke-miterlimit="10" style="fill-rule:nonzero;clip-rule:evenodd;stroke-linecap:round;stroke-linejoin:round;" version="1.1" viewBox="0 0 1000 1000" xml:space="preserve">
    <defs/>
    <clipPath id="ArtboardFrame_2">
        <rect height="1000" width="1000" x="0" y="0"/>
    </clipPath>

    <g id="Layer-1" vectornator:layerName="Layer 1">
        <path d="M481.208 461.703C534.075 409.643 607.545 241.199 707.159 195.176C752.257 174.34 828.002 138.903 959.554 333.001C994.73 384.901 929.646 454.377 902.784 487.044" fill="none" opacity="1" class="stroke-purple" stroke="#bd93f9" stroke-linecap="round" stroke-linejoin="miter" stroke-width="24.4437"/>
        <path d="M926.155 188.38C1012.82 128.996 928.579 61.9328 751.885 61.7792C627.89 61.6714 213.595 50.3545 118.111 100.78C-1.40794 163.899 51.7497 279.141 62.4071 297.718C91.8715 349.078 200.833 395.191 223.717 449.969C234.914 476.771 255.744 516.539 204.583 560.079" fill="none" opacity="1" class="stroke-purple" stroke="#bd93f9" stroke-linecap="round" stroke-linejoin="round" stroke-width="24.4437"/>
        <path d="M846.155 287.954C792.463 348.561 776.262 340.781 763.705 406.783C768.278 497.579 905.907 527.913 949.59 605.918C970.418 673.062 935.474 691.877 884.703 730.86" fill="none" opacity="1" class="stroke-purple" stroke="#bd93f9" stroke-linecap="round" stroke-linejoin="miter" stroke-width="24.4437"/>
        <path d="M840.358 569.111C840.358 569.111 786.854 619.864 786.141 649.418C785.515 675.373 837.717 738.482 874.679 785.9C898.782 816.821 957.874 849.57 927.872 899.059C884.259 970.999 335.444 935.527 154.792 848.178C85.0503 814.456 70.996 705.333 125.967 647.604" fill="none" opacity="1" class="stroke-purple" stroke="#bd93f9" stroke-linecap="round" stroke-linejoin="miter" stroke-width="24.4437"/>
        <path d="M805.791 785.983C709.947 851.095 536.005 599.428 384.7 439.988C300.515 351.276 223.338 291.116 170.52 329.957" fill="none" opacity="1" class="stroke-purple" stroke="#bd93f9" stroke-linecap="round" stroke-linejoin="miter" stroke-width="24.4437"/>
        <path d="M400.468 550.956C371.68 574.267 316.222 683.549 237.919 654.966C159.615 626.383 24.2615 484.906 97.3319 398.333" fill="none" opacity="1" class="stroke-purple" stroke="#bd93f9" stroke-linecap="round" stroke-linejoin="miter" stroke-width="24.4437"/>
    </g>
    <g id="Layer-3" vectornator:layerName="Layer 3">
        <path d="M133.562 287.062C96.2592 288.849 65.7444 317.811 63.875 354.844C61.881 394.346 93.2241 428.01 133.875 430.062C174.526 432.115 209.131 401.783 211.125 362.281C213.119 322.779 181.745 289.114 141.094 287.062C138.553 286.934 136.049 286.943 133.562 287.062Z" class="fill-background" fill-rule="nonzero" opacity="1" stroke="none"/>
        <path d="M154.17 544.659C116.867 546.445 86.3521 575.407 84.4827 612.44C82.4887 651.942 113.832 685.607 154.483 687.659C195.134 689.711 229.739 659.38 231.733 619.878C233.727 580.376 202.352 546.711 161.701 544.659C159.161 544.531 156.657 544.54 154.17 544.659Z" class="fill-background" fill-rule="nonzero" opacity="1" stroke="none"/>
        <path d="M435.809 433.377C421.023 434.085 407.303 439.063 396.011 447.121C378.816 459.391 367.25 478.805 366.122 501.159C364.128 540.66 395.471 574.325 436.122 576.377C476.773 578.429 511.378 548.098 513.372 508.596C515.366 469.094 483.991 435.429 443.34 433.377C440.8 433.249 438.296 433.258 435.809 433.377Z" class="fill-background" fill-rule="nonzero" opacity="1" stroke="none"/>
        <path d="M877.501 164.79C840.198 166.576 809.683 195.538 807.814 232.571C805.82 272.073 837.163 305.738 877.814 307.79C918.465 309.842 953.07 279.511 955.064 240.009C957.058 200.507 925.683 166.842 885.033 164.79C882.492 164.662 879.988 164.671 877.501 164.79Z" class="fill-background" fill-rule="nonzero" opacity="1" stroke="none"/>
        <path d="M866.401 462.638C829.098 464.425 798.583 493.387 796.714 530.42C794.72 569.922 826.063 603.586 866.714 605.638C907.365 607.69 941.97 577.359 943.964 537.857C945.958 498.355 914.583 464.69 873.932 462.638C871.392 462.51 868.888 462.519 866.401 462.638Z" class="fill-background" fill-rule="nonzero" opacity="1" stroke="none"/>
        <path d="M855.496 689.469C818.193 691.256 787.678 720.218 785.808 757.251C783.814 796.753 815.157 830.417 855.808 832.469C896.459 834.521 931.064 804.19 933.058 764.688C935.052 725.186 903.678 691.521 863.027 689.469C860.486 689.341 857.983 689.35 855.496 689.469Z" class="fill-background" fill-rule="nonzero" opacity="1" stroke="none"/>
    </g>
    <g id="Layer-4" vectornator:layerName="Layer 4">
        <path d="M193.825 411.531C163.543 382.579 102.925 392.35 86.0458 414.996" fill="none" opacity="1" class="stroke-orange stroke-orange" stroke="#ffb86c" stroke-linecap="round" stroke-linejoin="miter" stroke-width="24.4437"/>
        <path d="M78.8175 317.785C106.897 341.447 173.645 325.211 197.962 318.709" fill="none" opacity="1" class="stroke-orange stroke-orange" stroke="#ffb86c" stroke-linecap="round" stroke-linejoin="miter" stroke-width="24.4437"/>
        <path d="M389.007 443.662C435.694 483.489 416.855 525.599 391.575 559.146" fill="none" opacity="1" class="stroke-orange stroke-orange" stroke="#ffb86c" stroke-linecap="round" stroke-linejoin="miter" stroke-width="24.4437"/>
        <path d="M489.634 557.927C469.193 527.108 471.993 477.33 494.701 446.252" fill="none" opacity="1" class="stroke-orange stroke-orange" stroke="#ffb86c" stroke-linecap="round" stroke-linejoin="miter" stroke-width="24.4437"/>
        <path d="M205.149 559.756C178.922 583.688 131.72 577.046 114.675 554.727" fill="none" opacity="1" class="stroke-orange stroke-orange" stroke="#ffb86c" stroke-linecap="round" stroke-linejoin="miter" stroke-width="24.4437"/>
        <path d="M226.832 649.58C184.377 629.466 135.43 642.077 109.534 669.327" fill="none" opacity="1" class="stroke-orange stroke-orange" stroke="#ffb86c" stroke-linecap="round" stroke-linejoin="miter" stroke-width="24.4437"/>
        <path d="M822.391 192.219C856.316 204.263 856.892 279.612 838.2 296.562" fill="none" opacity="1" class="stroke-orange stroke-orange" stroke="#ffb86c" stroke-linecap="round" stroke-linejoin="miter" stroke-width="24.4437"/>
        <path d="M933.478 183.735C909.548 196.524 911.813 271.494 931.179 293.522" fill="none" opacity="1" class="stroke-orange stroke-orange" stroke="#ffb86c" stroke-linecap="round" stroke-linejoin="miter" stroke-width="24.4437"/>
        <path d="M815.221 490.399C851.196 515.248 841.782 567.801 823.623 585.982" fill="none" opacity="1" class="stroke-orange stroke-orange" stroke="#ffb86c" stroke-linecap="round" stroke-linejoin="miter" stroke-width="24.4437"/>
        <path d="M916.015 471.681C884.731 500.231 898.49 551.603 931.517 581.023" fill="none" opacity="1" class="stroke-orange stroke-orange" stroke="#ffb86c" stroke-linecap="round" stroke-linejoin="miter" stroke-width="24.4437"/>
        <path d="M813.201 704.451C832.184 723.434 819.604 785.317 792.562 792.496" fill="none" opacity="1" class="stroke-orange stroke-orange" stroke="#ffb86c" stroke-linecap="round" stroke-linejoin="miter" stroke-width="24.4437"/>
        <path d="M914.31 709.163C868.995 736.881 881.402 796.293 908.583 820.114" fill="none" opacity="1" class="stroke-orange stroke-orange" stroke="#ffb86c" stroke-linecap="round" stroke-linejoin="miter" stroke-width="24.4437"/>
    </g>
</svg>
